dist/image/favicon.svg

<svg width="111" height="101" viewBox="0 0 111 101" fill="none" xmlns="http://www.w3.org/2000/svg">
<g clip-path="url(#clip0)">
<g filter="url(#filter0_d)">
<path d="M79.6828 57.403C72.8884 49.1984 64.3003 44.6798 55.5 44.6798C46.6997 44.6798 38.1115 49.1984 31.3175 57.403C25.2104 64.7778 21.5645 74.0722 21.5645 82.2654C21.5645 86.2455 22.7811 89.277 25.1803 91.2763C27.5483 93.2498 30.6747 93.9173 34.1626 93.9171C37.874 93.9171 41.995 93.1612 46.0441 92.4183C49.5823 91.7691 52.9243 91.156 55.5002 91.156C57.7234 91.156 60.8581 91.7379 64.1762 92.354C71.931 93.794 80.7206 95.4258 85.7981 91.2035C88.2118 89.1964 89.4357 86.189 89.4357 82.2654C89.4359 74.0722 85.79 64.7778 79.6828 57.403Z" fill="#FF8A00"/>
<path d="M80.3775 12.851C77.8915 9.18526 74.3318 7.083 70.6109 7.083C66.8898 7.083 63.3303 9.18546 60.8444 12.851C58.5608 16.2186 57.303 20.6409 57.303 25.3034C57.303 29.966 58.5606 34.3883 60.8444 37.7558C63.3303 41.4214 66.89 43.5239 70.6109 43.5239C74.332 43.5239 77.8915 41.4214 80.3775 37.7558C82.6611 34.3883 83.9188 29.966 83.9188 25.3034C83.9188 20.6409 82.6613 16.2184 80.3775 12.851Z" fill="#FF8A00"/>
<path d="M50.1559 12.8509C47.6699 9.18508 44.1104 7.08282 40.3893 7.08282C36.6683 7.08282 33.1086 9.18528 30.6228 12.8509C28.3392 16.2184 27.0814 20.6407 27.0814 25.3033C27.0814 29.9658 28.339 34.3881 30.6228 37.7557C33.1088 41.4214 36.6683 43.5239 40.3893 43.5239C44.1104 43.5239 47.6699 41.4214 50.1559 37.7557C52.4395 34.3881 53.6973 29.966 53.6973 25.3033C53.6971 20.6407 52.4395 16.2182 50.1559 12.8509Z" fill="#FF8A00"/>
<path d="M105.405 41.452C104.402 38.0424 102.254 35.565 99.3563 34.4762C97.0242 33.6002 94.3917 33.7487 91.9436 34.8946C88.5699 36.4736 85.8123 39.734 84.3784 43.8397C83.2066 47.1948 83.0605 50.741 83.9671 53.8256C84.9693 57.2352 87.1174 59.7126 90.0156 60.8014C91.0185 61.1781 92.0767 61.3653 93.152 61.3653C94.5775 61.3653 96.0331 61.0361 97.4285 60.383C100.802 58.804 103.56 55.5436 104.994 51.4381V51.4379C106.165 48.083 106.311 44.5366 105.405 41.452Z" fill="#FF8A00"/>
<path d="M26.6221 43.8393C25.188 39.7336 22.4304 36.4734 19.0569 34.8945C16.6086 33.7486 13.9759 33.6003 11.644 34.4761C8.74576 35.565 6.59766 38.0425 5.59551 41.4518C4.68881 44.5365 4.83496 48.0829 6.00674 51.4378V51.438C7.44105 55.5437 10.1984 58.8039 13.5719 60.3828C14.9676 61.0359 16.423 61.3652 17.8484 61.3652C18.9237 61.3652 19.9821 61.1778 20.9849 60.8012C23.8834 59.7123 26.0314 57.2348 27.0335 53.8255C27.9398 50.741 27.7937 47.1946 26.6221 43.8393Z" fill="#FF8A00"/>
</g>
</g>
<defs>
<filter id="filter0_d" x="-0.99231" y="5.08282" width="112.985" height="98.8343" filterUnits="userSpaceOnUse" color-interpolation-filters="sRGB">
<feFlood flood-opacity="0" result="BackgroundImageFix"/>
<feColorMatrix in="SourceAlpha" type="matrix" values="0 0 0 0 0 0 0 0 0 0 0 0 0 0 0 0 0 0 127 0" result="hardAlpha"/>
<feOffset dy="4"/>
<feGaussianBlur stdDeviation="3"/>
<feComposite in2="hardAlpha" operator="out"/>
<feColorMatrix type="matrix" values="0 0 0 0 0 0 0 0 0 0 0 0 0 0 0 0 0 0 0.25 0"/>
<feBlend mode="normal" in2="BackgroundImageFix" result="effect1_dropShadow"/>
<feBlend mode="normal" in="SourceGraphic" in2="effect1_dropShadow" result="shape"/>
</filter>
<clipPath id="clip0">
<rect width="111" height="101" fill="white"/>
</clipPath>
</defs>
</svg>

<svg width="111" height="101" fill="none" xmlns="http://www.w3.org/2000/svg"><g filter="url(#filter0_d)" fill="#FF8A00" clip-path="url(#clip0)"><path d="M79.683 57.403C72.888 49.198 64.3 44.68 55.5 44.68s-17.389 4.518-24.183 12.723c-6.107 7.375-9.753 16.67-9.753 24.862 0 3.98 1.217 7.012 3.616 9.011 2.368 1.974 5.495 2.641 8.983 2.641 3.711 0 7.832-.756 11.881-1.499 3.538-.649 6.88-1.262 9.456-1.262 2.223 0 5.358.582 8.676 1.198 7.755 1.44 16.545 3.072 21.622-1.15 2.414-2.008 3.638-5.015 3.638-8.939 0-8.193-3.646-17.487-9.753-24.862zM80.377 12.851c-2.486-3.666-6.045-5.768-9.766-5.768s-7.28 2.102-9.767 5.768c-2.283 3.368-3.541 7.79-3.541 12.452 0 4.663 1.258 9.085 3.541 12.453 2.486 3.665 6.046 5.768 9.767 5.768 3.721 0 7.28-2.103 9.766-5.768 2.284-3.368 3.542-7.79 3.542-12.453 0-4.662-1.258-9.085-3.541-12.452zM50.156 12.85c-2.486-3.665-6.046-5.767-9.767-5.767-3.72 0-7.28 2.102-9.766 5.768-2.284 3.367-3.542 7.79-3.542 12.452 0 4.663 1.258 9.085 3.542 12.453 2.486 3.665 6.045 5.768 9.766 5.768s7.28-2.103 9.767-5.768c2.284-3.368 3.541-7.79 3.541-12.453 0-4.662-1.258-9.085-3.541-12.452zM105.405 41.452c-1.003-3.41-3.151-5.887-6.049-6.976-2.332-.876-4.964-.727-7.412.419-3.374 1.579-6.132 4.839-7.566 8.945-1.171 3.355-1.317 6.901-.41 9.986 1.001 3.41 3.15 5.887 6.048 6.975a8.897 8.897 0 003.136.564c1.425 0 2.881-.329 4.276-.982 3.374-1.579 6.132-4.84 7.566-8.945 1.171-3.355 1.317-6.901.411-9.986zM26.622 43.84c-1.434-4.106-4.192-7.367-7.565-8.946-2.448-1.145-5.081-1.294-7.413-.418-2.898 1.089-5.046 3.566-6.048 6.976-.907 3.084-.761 6.63.41 9.986 1.435 4.106 4.192 7.366 7.566 8.945 1.396.653 2.851.982 4.276.982a8.9 8.9 0 003.137-.564c2.898-1.089 5.046-3.566 6.049-6.976.906-3.084.76-6.63-.412-9.986z"/></g><defs><clipPath id="clip0"><path fill="#fff" d="M0 0h111v101H0z"/></clipPath><filter id="filter0_d" x="-.992" y="5.083" width="112.985" height="98.834" filterUnits="userSpaceOnUse" color-interpolation-filters="sRGB"><feFlood flood-opacity="0" result="BackgroundImageFix"/><feColorMatrix in="SourceAlpha" values="0 0 0 0 0 0 0 0 0 0 0 0 0 0 0 0 0 0 127 0" result="hardAlpha"/><feOffset dy="4"/><feGaussianBlur stdDeviation="3"/><feComposite in2="hardAlpha" operator="out"/><feColorMatrix values="0 0 0 0 0 0 0 0 0 0 0 0 0 0 0 0 0 0 0.25 0"/><feBlend in2="BackgroundImageFix" result="effect1_dropShadow"/><feBlend in="SourceGraphic" in2="effect1_dropShadow" result="shape"/></filter></defs></svg>
